X: 37626
T: Snouts And Ears
R: polka
M: 2/4
K: Dmajor
A|:"D" dD D>E|FA de/d/|"A" cA A/B/c/d/|eA"A7" AB/c/|
"Bm7" d/c/B/A/"G" GF|"A" E[DA] A/B/A/G/|"D" FD"A7" ED/E/|1 "D" FD DA:|2 "D" FD D>D||
|:"D" FD/D/ DD|FD [DA]B/A/|"A7" G[A,E] [A,E][A,E]|"D" Ad"G" dA/G/|
"D" FD D>D|"Bm7" FA AB/A/|"Em" GE"A7" A>G|1 "D" FD DD/E/:|2 "D" FD D2||

